X:2
T:The Summer Knows
C:Michel Legrand
L:1/8
M:C
I:linebreak $
K:Ab
"Gb7" C2 ||"Fm6" GA F4 C2 |"FmM" GA B4 C2 |"Fm/Eb" GA F4 C2 |$"Dø" GA c4 F2 |"Bbm" cd B4 F2 |
"BbmM" cd e4 F2 |"Bbm/Ab" cdBF cdBF |$"Gø" AB"C7" G4 C2 ||[K:F]"F" GA F4 C2 |"Gø" GA B4 C2 |
"F" GA F4 C2 |$"Cm" GA c2"F4" z2 F2 |"Bb" cd B4 F2 |"Bø" cd f2"E7" z2 ed ||
[K:A]"A" c2 E2"Bo" =F2 ed |$"A" c2 E2"Eb7" _e2 _d2 ||[K:Ab]"Ab" c2 E2"Bbo" =E2 ed |
"Ab" c2 E2"D7" =d2 c2 ||[K:G]"G" c2 B2"Am/G" A2 G2 ||$[K:F]"Gø" cBAG"Gb7" E2 C2 ||"F" GA F4 C2 |
"Gø" GA B4 F2 |"F" Bc A4 F2 |$"Gø" Bc _d4 C2 ||[K:Ab]"Fm" GA F4 C2 |"Gø" GA F4 F2 |
"Fm6" F8 |]

